X:1
T:Title
%%score { ( 1 3 ) | ( 2 4 ) }
L:1/8
Q:1/4=80
M:3/4
K:D
V:1 treble nm="Grand Piano"
V:3 treble 
V:2 bass 
V:4 bass 
V:1
 FF FF ED | F2 E2 z2 | [CG][CG] [CG][CG] [CF][CE] | G2 z2 z2 | AA AA [^DB][DF] | A2 G2 z2 | %6
w: Florence~Williams~Falconer * * * * *||||||
 DD CD F>E | [CE]4 z2 | [CG][CG] [CG][CG] [CF][CE] | G2 F2 z2 | BB BB [^Gd]>[Gc] | c4 G,2 | %12
w: ||||||
 [DAd][DFA] [B,=F^G][D^FA] [B,FB]>[B,DF] | A2 G2 AB | D4 z2 | D4 z2 |] %16
w: ||||
V:2
 [D,A,D][D,A,D] [D,A,D][D,A,D] [D,G,D][D,F,] | [A,C]2 [G,A,C]2 z2 | %2
 [A,,A,][A,,A,] [A,,A,][A,,A,] [A,,A,][A,,G,] | .B,2 z2 z2 | %4
 [F,A,D][F,A,D] [F,A,D][F,A,D] [B,,F,][B,,B,] | [E,=CE]2 [E,B,E]2 z2 | %6
 [A,,F,A,][A,,F,A,] [A,,=F,A,][A,,^F,A,] [E,^G,D]>[E,G,D] | [A,,A,]4 z2 | %8
 [A,,E,][A,,E,] [A,,E,][A,,E,] [A,,A,][A,,G,] | [D,B,D]2 [D,A,D]2 z2 | %10
 [G,D][G,D] [G,DG][G,DG][K:bass] [E,E]>[E,E] | E6 | F,D, D,D, ^D,>B,, | [E,B,E]2 [E,B,E]2 z2 | %14
 [A,,F,A,][A,,F,] [A,,F,][A,,E,A,] [A,,A,]>[A,,G,] | [D,F,]4 z2 |] %16
V:3
 x6 | x6 | x6 | z ^A, F4 | x6 | x6 | x6 | x6 | x6 | x6 | x6 | x6 | x6 | x6 | z A, A,C [CF]>[CE] | %15
 x6 |] %16
V:4
 x6 | x6 | x6 | [D,D]2- [D,A,D]4 | x6 | x6 | x6 | x6 | x6 | x6 | x4[K:bass] x2 | [A,A]4 z2 | x6 | %13
 x6 | x6 | x6 |] %16

